src/app/components/golos-ui/Icon/assets/ic_mirror.svg

<?xml version="1.0" encoding="UTF-8"?>
<svg width="29px" height="30px" viewBox="0 0 29 30" version="1.1" xmlns="http://www.w3.org/2000/svg" xmlns:xlink="http://www.w3.org/1999/xlink">
    <!-- Generator: Sketch 51.2 (57519) - http://www.bohemiancoding.com/sketch -->
    <title>ic_fashion</title>
    <desc>Created with Sketch.</desc>
    <defs></defs>
    <g id="FAQ" stroke="none" stroke-width="1" fill="none" fill-rule="evenodd">
        <g transform="translate(-87.000000, -1468.000000)" fill="#FFC80A" fill-rule="nonzero" id="Group-7">
            <g transform="translate(0.000000, 1202.000000)">
                <g id="Group-22" transform="translate(64.000000, 241.000000)">
                    <g id="ic_fashion" transform="translate(23.000000, 25.000000)">
                        <path d="M28.9435263,11.484375 C28.9435263,11.4836133 28.9434133,11.4828516 28.9434133,11.4820898 C28.9422261,10.0293164 27.801616,8.84765625 26.3996101,8.84765625 C26.0003372,8.84765625 25.6124269,8.94240234 25.2597349,9.12023437 C24.2107037,3.91816406 19.772347,0 14.4717349,0 C9.17112281,0 4.73276608,3.91816406 3.68373489,9.12035156 C3.33104288,8.94246094 2.94313255,8.84765625 2.54385965,8.84765625 C1.14117544,8.84765625 0,10.0304883 0,11.484375 C0,19.5358594 6.16326316,25.9529883 13.6237817,26.3994141 L13.6237817,28.2421875 L9.38401559,28.2421875 C8.9157193,28.2421875 8.53606238,28.6357031 8.53606238,29.1210938 C8.53606238,29.6064844 8.9157193,30 9.38401559,30 L19.5594542,30 C20.0277505,30 20.4074074,29.6064844 20.4074074,29.1210938 C20.4074074,28.6357031 20.0277505,28.2421875 19.5594542,28.2421875 L15.3196881,28.2421875 L15.3196881,26.3994141 C22.7793021,25.9530469 28.9435263,19.5367383 28.9435263,11.484375 Z M26.3996101,10.6054688 C26.8671715,10.6054688 27.2475634,10.9997461 27.2475634,11.484375 C27.2475634,11.9690039 26.8671715,12.3632812 26.3996101,12.3632812 C25.9178031,12.3632812 25.4951267,11.9525977 25.4951267,11.484375 C25.4951267,11.0161523 25.9178031,10.6054688 26.3996101,10.6054688 Z M14.4717349,1.7578125 C19.6149103,1.7578125 23.7992203,6.12111328 23.7992203,11.484375 C23.7992203,16.815293 19.6149103,21.1523438 14.4717349,21.1523438 C9.32855945,21.1523438 5.14424951,16.8153516 5.14424951,11.484375 C5.14424951,6.12123047 9.32855945,1.7578125 14.4717349,1.7578125 Z M2.54385965,10.6054688 C3.02566667,10.6054688 3.44834308,11.0161523 3.44834308,11.484375 C3.44834308,11.9525977 3.02566667,12.3632812 2.54385965,12.3632812 C2.07629825,12.3632812 1.69590643,11.9690039 1.69590643,11.484375 C1.69590643,10.9997461 2.07629825,10.6054688 2.54385965,10.6054688 Z M14.4717349,24.6679688 C8.27602339,24.6679688 3.0970078,20.0930273 1.93864717,14.0450977 C2.1327154,14.094375 2.33531969,14.1210938 2.54385965,14.1210938 C2.94403704,14.1210938 3.33273879,14.0259375 3.6859961,13.8473438 C4.73909747,19.0175391 9.1748538,22.9101562 14.4717349,22.9101562 C19.768616,22.9101562 24.2043723,19.0174805 25.2574737,13.8473438 C25.610731,14.0259375 25.9994327,14.1210938 26.3996101,14.1210938 C26.6082066,14.1210938 26.8107544,14.094375 27.0048791,14.0450977 C25.8465185,20.0930273 20.6674464,24.6679688 14.4717349,24.6679688 Z" id="Shape"></path>
                        <path d="M15.0712943,5.58949219 C14.7401969,5.24625 14.2032729,5.24625 13.8721189,5.58949219 L8.78439961,10.8629297 C8.45324561,11.2061719 8.45324561,11.7626367 8.78439961,12.1058789 C9.11549708,12.4491211 9.65247758,12.4491211 9.98357505,12.1058789 L15.0712943,6.83244141 C15.4024483,6.48919922 15.4024483,5.93279297 15.0712943,5.58949219 Z" id="Shape"></path>
                        <path d="M20.1590702,10.8629297 C19.8279162,10.5196875 19.2909922,10.5196875 18.9598947,10.8629297 L13.8721754,16.1363672 C13.5410214,16.4796094 13.5410214,17.0360742 13.8721754,17.3793164 C14.2032729,17.7225586 14.7401969,17.7226172 15.0713509,17.3793164 L20.1590702,12.1058789 C20.4902242,11.7626367 20.4902242,11.2062305 20.1590702,10.8629297 Z" id="Shape"></path>
                        <path d="M20.1590136,5.58949219 C19.8279162,5.24625 19.2909922,5.24625 18.9598382,5.58949219 L8.78439961,16.1363672 C8.45324561,16.4796094 8.45324561,17.0360742 8.78439961,17.3793164 C9.11549708,17.7225586 9.65247758,17.7225586 9.98357505,17.3793164 L20.1590136,6.83244141 C20.4901676,6.48919922 20.4901676,5.93279297 20.1590136,5.58949219 Z" id="Shape"></path>
                    </g>
                </g>
            </g>
        </g>
    </g>
</svg>

<svg width="29" height="30" viewBox="0 0 29 30" xmlns="http://www.w3.org/2000/svg"><g fill="#FFC80A"><path d="M28.944 11.484v-.002c-.002-1.453-1.142-2.634-2.544-2.634-.4 0-.788.094-1.14.272C24.21 3.918 19.772 0 14.472 0S4.732 3.918 3.684 9.12a2.525 2.525 0 0 0-1.14-.272C1.14 8.848 0 10.03 0 11.484 0 19.536 6.163 25.953 13.624 26.4v1.843h-4.24c-.468 0-.848.394-.848.88 0 .484.38.878.848.878h10.175c.469 0 .848-.394.848-.879s-.38-.879-.848-.879h-4.24V26.4c7.46-.446 13.625-6.862 13.625-14.915zm-2.544-.879c.467 0 .848.395.848.88 0 .484-.38.878-.848.878-.482 0-.905-.41-.905-.879 0-.468.423-.879.905-.879zM14.472 1.758c5.143 0 9.327 4.363 9.327 9.726 0 5.331-4.184 9.668-9.327 9.668s-9.328-4.337-9.328-9.668c0-5.363 4.185-9.726 9.328-9.726zM2.544 10.605c.482 0 .904.411.904.88 0 .468-.422.878-.904.878-.468 0-.848-.394-.848-.879 0-.484.38-.879.848-.879zm11.928 14.063c-6.196 0-11.375-4.575-12.533-10.623a2.52 2.52 0 0 0 1.747-.198c1.053 5.17 5.489 9.063 10.786 9.063s9.732-3.893 10.785-9.063a2.524 2.524 0 0 0 1.748.198c-1.158 6.048-6.338 10.623-12.533 10.623z"/><path d="M15.071 5.59a.827.827 0 0 0-1.199 0l-5.088 5.273a.902.902 0 0 0 0 1.243.827.827 0 0 0 1.2 0l5.087-5.274a.902.902 0 0 0 0-1.243zm5.089 5.273a.827.827 0 0 0-1.2 0l-5.088 5.273a.902.902 0 0 0 0 1.243.827.827 0 0 0 1.2 0l5.087-5.273a.902.902 0 0 0 0-1.243zm-.001-5.273a.827.827 0 0 0-1.2 0L8.785 16.135a.902.902 0 0 0 0 1.243.827.827 0 0 0 1.2 0L20.159 6.832a.902.902 0 0 0 0-1.243z"/></g></svg>
